X:1
T:C'est L'Aviron (2)
M:2/4
L:1/8
K:C
 F2 GE| D3/2 E/2 FA| GA FD| F2 GE| D3/2 E/2 FA| GA FD| A2 BA| G3/2 F/2 EF|\
 GA F E/2D/2| FA A G/2F/2| EE F E/2D/2| FA A G/2E/2| F3/2- E/2 D2|\
